!!!OTL: Venus, du und dein Kind
!!!ARE: Europa, Mitteleuropa, Deutschland
!!!SCT: A0219C
!!!YEM: Copyright 1995, estate of Helmut Schaffrath.
**kern
*ICvox
*Ivox
*M4/2
*k[b-]
*d:
{2d
=1
2d
2e
2fn
2g
=2
1a
2r}
{2a
=3
2a
2g
2fn
2fn
=4
1e
2r}
{2e
=5
2fn
2g
2a
2a
=6
1g
2a}
{2a
=7
2fn
2g
2a
2a
=8
1g
1fn}
=9
{2a
2dd
1a
=10
2a
2a
1g}
=11
{2g
2g
2a
2g
=12
2fn
2g
1e
=13
1.d}
==
!!!AGN: Romanze, Ballade, Lied
!! Als Choral. Zuerst bei H. Schein 1627.
!!!ONB: ESAC (Essen Associative Code) Database: ALTDEU
!!!AMT: simple quadruple
!!!AIN: vox
!!!EED: Helmut Schaffrath
!!!EEV: 1.0
*-
